modules/micon/icons/delicious.svg

<svg width="1792" height="1792" viewBox="0 0 1792 1792" xmlns="http://www.w3.org/2000/svg"><path d="M1600 1376v-480h-704v-704h-480q-93 0-158.5 65.5t-65.5 158.5v480h704v704h480q93 0 158.5-65.5t65.5-158.5zm64-960v960q0 119-84.5 203.5t-203.5 84.5h-960q-119 0-203.5-84.5t-84.5-203.5v-960q0-119 84.5-203.5t203.5-84.5h960q119 0 203.5 84.5t84.5 203.5z"/></svg>

<svg width="1792" height="1792" xmlns="http://www.w3.org/2000/svg"><path d="M1600 1376V896H896V192H416q-93 0-158.5 65.5T192 416v480h704v704h480q93 0 158.5-65.5T1600 1376zm64-960v960q0 119-84.5 203.5T1376 1664H416q-119 0-203.5-84.5T128 1376V416q0-119 84.5-203.5T416 128h960q119 0 203.5 84.5T1664 416z"/></svg>
